dist/img/slider/ico-shape.svg

<svg width="18" height="9" viewBox="0 0 18 9" fill="none" xmlns="http://www.w3.org/2000/svg">
<path fill-rule="evenodd" clip-rule="evenodd" d="M18 4.5C18 4.22386 17.7761 4 17.5 4L1.5 4C1.22386 4 1 4.22386 1 4.5C1 4.77614 1.22386 5 1.5 5L17.5 5C17.7761 5 18 4.77614 18 4.5Z" fill="#333333"/>
<path fill-rule="evenodd" clip-rule="evenodd" d="M5.35355 0.646447C5.15829 0.451184 4.84171 0.451184 4.64645 0.646447L0.792894 4.5L4.64645 8.35355C4.84171 8.54882 5.15829 8.54882 5.35355 8.35355C5.54882 8.15829 5.54882 7.84171 5.35355 7.64645L2.20711 4.5L5.35355 1.35355C5.54882 1.15829 5.54882 0.841709 5.35355 0.646447Z" fill="#333333"/>
</svg>

<svg width="18" height="9" fill="none" xmlns="http://www.w3.org/2000/svg"><path fill-rule="evenodd" clip-rule="evenodd" d="M18 4.5a.5.5 0 00-.5-.5h-16a.5.5 0 000 1h16a.5.5 0 00.5-.5z" fill="#333"/><path fill-rule="evenodd" clip-rule="evenodd" d="M5.354.646a.5.5 0 00-.708 0L.793 4.5l3.853 3.854a.5.5 0 10.708-.708L2.207 4.5l3.147-3.146a.5.5 0 000-.708z" fill="#333"/></svg>
